svg/NEPAnode-FreeOpenSourceLicenses/licenses-cc-nc-non-commercial-jp.svg

<svg enable-background="new 0 0 64 64" viewBox="0 0 64 64" xmlns="http://www.w3.org/2000/svg"><circle cx="32.485" cy="31.496" fill="#fff" r="28.44"/><path d="m54.708 9.279c-6.196-6.186-13.776-9.279-22.75-9.279-8.863 0-16.366 3.093-22.505 9.279-6.303 6.401-9.453 13.974-9.453 22.721 0 8.746 3.15 16.268 9.453 22.561 6.299 6.293 13.802 9.439 22.505 9.439 8.812 0 16.449-3.173 22.909-9.52 6.089-6.03 9.133-13.521 9.133-22.48 0-8.96-3.098-16.534-9.292-22.721m-4.01 41.04c-5.287 5.227-11.508 7.839-18.661 7.839-7.156 0-13.324-2.587-18.503-7.761-5.18-5.171-7.769-11.305-7.769-18.398 0-2.728.391-5.318 1.164-7.777l16.383 7.295h-3.605v4.981h7.496l.733 1.521v2.414h-8.229v4.98h8.229v7.234h7.963v-7.234h8.281v-4.604l10.448 4.653c-1.07 1.739-2.379 3.359-3.93 4.857m-7.364-9.886h-7.433v-2.414l.375-.728 7.06 3.142m.847-6.625v-2.291h-4.979l8.125-14.969h-8.492l-5.595 12.388-2.969-1.322-5.113-11.07h-8.491l3.524 6.578-10.566-4.705c1.098-1.741 2.424-3.403 3.988-4.983 5.02-5.12 11.16-7.68 18.424-7.68 7.26 0 13.429 2.56 18.502 7.68 5.126 5.067 7.688 11.253 7.688 18.561 0 2.707-.342 5.241-1.021 7.607l-13.02-5.798"/></svg>

<?xml version="1.0" encoding="utf-8"?>
<!-- Generator: Adobe Illustrator 13.0.2, SVG Export Plug-In . SVG Version: 6.00 Build 14948)  --><svg enable-background="new 0 0 64 64" height="64px" id="Layer_1" space="preserve" version="1.1" viewBox="0 0 64 64" width="64px" x="0px" xmlns="http://www.w3.org/2000/svg" xmlns:xlink="http://www.w3.org/1999/xlink" y="0px">
  <metadata>
    <rdf:RDF xmlns:cc="http://web.resource.org/cc/" xmlns:dc="http://purl.org/dc/elements/1.1/" xmlns:rdf="http://www.w3.org/1999/02/22-rdf-syntax-ns#">
      <cc:Work rdf:about="">
        <dc:title></dc:title>
        <dc:description></dc:description>
        <dc:subject>
          <rdf:Bag>
            <rdf:li></rdf:li>
          </rdf:Bag>
        </dc:subject>
        <dc:publisher>
          <cc:Agent rdf:about="http://creativecommons.org/about/downloads">
            <dc:title>Source: Creative Commons, Source: Creative Commons, Source: Creative Commons</dc:title>
          </cc:Agent>
        </dc:publisher>
        <dc:creator>
          <cc:Agent>
            <dc:title></dc:title>
          </cc:Agent>
        </dc:creator>
        <dc:rights>
          <cc:Agent>
            <dc:title></dc:title>
          </cc:Agent>
        </dc:rights>
        <dc:date></dc:date>
        <dc:format>image/svg+xml</dc:format>
        <dc:type rdf:resource="http://purl.org/dc/dcmitype/StillImage"/>
        <cc:license rdf:resource="http://creativecommons.org/licenses/by/3.0/"/>
        <dc:language>en</dc:language>
      </cc:Work>
    </rdf:RDF>
  </metadata>
  <g>
    <circle cx="32.485" cy="31.496" fill="#FFFFFF" r="28.44"/>
    <path d="M54.708,9.279C48.512,3.093,40.932,0,31.958,0C23.095,0,15.592,3.093,9.453,9.279C3.15,15.68,0,23.253,0,32   c0,8.746,3.15,16.268,9.453,22.561C15.752,60.854,23.255,64,31.958,64c8.812,0,16.449-3.173,22.909-9.52   C60.956,48.454,64,40.959,64,32C64,23.04,60.902,15.466,54.708,9.279z M50.701,50.32c-5.287,5.227-11.508,7.839-18.661,7.839   c-7.156,0-13.324-2.587-18.503-7.761C8.357,45.227,5.768,39.093,5.768,32c0-2.728,0.391-5.318,1.164-7.777l16.383,7.295H19.71   v4.981h7.496l0.733,1.521v2.414H19.71v4.98h8.229v7.234h7.963v-7.234h8.281v-4.604l10.448,4.653   C53.561,47.202,52.252,48.822,50.701,50.32z M43.337,40.434h-7.433V38.02l0.375-0.728L43.337,40.434z M44.184,33.809v-2.291h-4.979   l8.125-14.969h-8.492l-5.595,12.388l-2.969-1.322l-5.113-11.066H16.67l3.524,6.578L9.628,18.422   c1.098-1.741,2.424-3.403,3.988-4.983c5.02-5.12,11.16-7.68,18.424-7.68c7.26,0,13.429,2.56,18.502,7.68   C55.668,18.506,58.23,24.692,58.23,32c0,2.707-0.342,5.241-1.021,7.607L44.184,33.809z"/>
  </g>
</svg>
